Yaru++/actions/16/distribute-horizontal-margin.svg

<svg viewBox="0 0 24 24" xmlns="http://www.w3.org/2000/svg">
  <path d="m4 4v1 15h1 14 1v-1-14-1zm1 1h14v14h-14zm1 3v8h5v-8zm7 0v8h5v-8zm-6 1h3v6h-3zm7 0h3v6h-3z" fill="#808080"/>
</svg>

<svg xmlns="http://www.w3.org/2000/svg" viewBox="0 0 24 24">
 <defs>
  <style id="current-color-scheme" type="text/css">
   .ColorScheme-Text { color:#808080; }
  </style>
 </defs>
 <path style="fill:currentColor" class="ColorScheme-Text" d="M 4 4 L 4 5 L 4 20 L 5 20 L 19 20 L 20 20 L 20 19 L 20 5 L 20 4 L 4 4 z M 5 5 L 19 5 L 19 19 L 5 19 L 5 5 z M 6 8 L 6 16 L 11 16 L 11 8 L 6 8 z M 13 8 L 13 16 L 18 16 L 18 8 L 13 8 z M 7 9 L 10 9 L 10 15 L 7 15 L 7 9 z M 14 9 L 17 9 L 17 15 L 14 15 L 14 9 z"/>
</svg>
